static/images/more_arrow_yellow.svg

<svg width="10" height="17" viewBox="0 0 10 17" fill="none" xmlns="http://www.w3.org/2000/svg">
<path d="M8 8.50278C8 8.27462 7.91404 8.08542 7.72493 7.90735L3.31232 3.71703C3.16905 3.57234 2.98567 3.5 2.77364 3.5C2.34384 3.5 2 3.83389 2 4.25125C2 4.46272 2.08596 4.64636 2.24069 4.79661L6.16046 8.50835L2.24069 12.209C2.08596 12.3592 2 12.5484 2 12.7543C2 13.1717 2.34384 13.5 2.77364 13.5C2.9914 13.5 3.16905 13.4332 3.31232 13.2885L7.72493 9.09822C7.91404 8.92015 7.99427 8.73094 8 8.50278Z" fill="#FAC33D"/>
</svg>

<svg xmlns="http://www.w3.org/2000/svg" width="10" height="17" fill="none"><path fill="#FAC33D" d="M8 8.503c0-.228-.086-.418-.275-.596l-4.413-4.19a.733.733 0 0 0-.538-.217.76.76 0 0 0-.774.751c0 .212.086.395.24.546l3.92 3.711-3.92 3.701a.753.753 0 0 0-.24.545c0 .418.344.746.774.746a.72.72 0 0 0 .538-.211l4.413-4.19A.8.8 0 0 0 8 8.502Z"/></svg>
